src/static/logos/angellist.svg

<?xml version="1.0" encoding="UTF-8" standalone="no"?>
<svg width="256px" height="369px" viewBox="0 0 256 369" version="1.1" xmlns="http://www.w3.org/2000/svg" xmlns:xlink="http://www.w3.org/1999/xlink" preserveAspectRatio="xMidYMid">
    <g>
        <path d="M214.899083,157.357798 C230.165138,159.706422 240.733945,166.752294 246.605505,176.146789 C252.477064,185.541284 256,201.981651 256,223.119266 C256,265.394495 243.082569,300.623853 217.247706,327.633028 C191.412844,354.642202 158.53211,368.733945 118.605505,368.733945 C103.33945,368.733945 88.0733945,366.385321 72.8073394,360.513761 C57.5412844,354.642202 45.7981651,346.422018 35.2293578,337.027523 C23.4862385,326.458716 14.0917431,313.541284 8.22018349,301.798165 C3.52293578,288.880734 0,275.963303 0,263.045872 C0,248.954128 3.52293578,237.211009 9.39449541,228.990826 C15.266055,220.770642 25.8348624,216.073394 38.7522936,212.550459 C36.4036697,206.678899 34.0550459,201.981651 32.8807339,197.284404 C31.706422,193.761468 30.5321101,190.238532 30.5321101,187.889908 C30.5321101,180.844037 34.0550459,172.623853 42.2752294,164.40367 C50.4954128,156.183486 57.5412844,152.66055 64.587156,152.66055 C68.1100917,152.66055 70.4587156,152.66055 73.9816514,153.834862 C77.5045872,155.009174 81.0275229,156.183486 85.7247706,159.706422 C75.1559633,124.477064 64.587156,95.1192661 58.7155963,75.1559633 C52.8440367,55.1926606 50.4954128,42.2752294 50.4954128,34.0550459 C50.4954128,23.4862385 52.8440367,15.266055 58.7155963,9.39449541 C63.412844,3.52293578 71.6330275,0 81.0275229,0 C96.293578,0 116.256881,35.2293578 140.917431,106.862385 C145.614679,118.605505 147.963303,128 150.311927,135.045872 C152.66055,130.348624 155.009174,122.12844 158.53211,112.733945 C183.192661,42.2752294 204.330275,7.04587156 220.770642,7.04587156 C228.990826,7.04587156 236.036697,9.39449541 241.908257,15.266055 C246.605505,21.1376147 250.12844,29.3577982 250.12844,38.7522936 C250.12844,45.7981651 247.779817,59.8899083 241.908257,79.853211 C234.862385,99.8165138 226.642202,125.651376 214.899083,157.357798 L214.899083,157.357798 Z M34.0550459,260.697248 C36.4036697,263.045872 39.9266055,267.743119 43.4495413,273.614679 C54.0183486,288.880734 64.587156,297.100917 73.9816514,297.100917 C77.5045872,297.100917 79.853211,295.926606 82.2018349,293.577982 C84.5504587,291.229358 85.7247706,288.880734 85.7247706,287.706422 C85.7247706,285.357798 84.5504587,280.66055 81.0275229,274.788991 C77.5045872,268.917431 72.8073394,261.87156 66.9357798,254.825688 C59.8899083,246.605505 54.0183486,239.559633 50.4954128,236.036697 C45.7981651,232.513761 42.2752294,230.165138 39.9266055,230.165138 C34.0550459,230.165138 28.1834862,233.688073 23.4862385,239.559633 C18.7889908,245.431193 16.440367,253.651376 16.440367,261.87156 C16.440367,268.917431 17.6146789,275.963303 21.1376147,285.357798 C24.6605505,293.577982 29.3577982,302.972477 36.4036697,311.192661 C46.9724771,322.93578 58.7155963,333.504587 73.9816514,340.550459 C89.2477064,347.59633 104.513761,351.119266 123.302752,351.119266 C156.183486,351.119266 183.192661,339.376147 205.504587,314.715596 C227.816514,290.055046 238.385321,259.522936 238.385321,221.944954 C238.385321,210.201835 237.211009,201.981651 236.036697,194.93578 C234.862385,187.889908 231.33945,183.192661 227.816514,180.844037 C220.770642,174.972477 207.853211,170.275229 187.889908,165.577982 C167.926606,160.880734 146.788991,158.53211 125.651376,158.53211 C119.779817,158.53211 115.082569,159.706422 112.733945,162.055046 C110.385321,164.40367 109.211009,167.926606 109.211009,172.623853 C109.211009,184.366972 115.082569,192.587156 128,197.284404 C140.917431,201.981651 162.055046,205.504587 190.238532,205.504587 L200.807339,205.504587 C203.155963,205.504587 205.504587,206.678899 206.678899,207.853211 C207.853211,210.201835 209.027523,212.550459 209.027523,216.073394 C206.678899,218.422018 200.807339,221.944954 191.412844,225.46789 C182.018349,228.990826 176.146789,232.513761 171.449541,236.036697 C160.880734,243.082569 152.66055,252.477064 146.788991,263.045872 C140.917431,273.614679 137.394495,283.009174 137.394495,292.40367 C137.394495,298.275229 138.568807,304.146789 140.917431,312.366972 C143.266055,320.587156 144.440367,325.284404 144.440367,326.458716 L144.440367,328.807339 L144.440367,331.155963 C137.394495,331.155963 131.522936,326.458716 126.825688,318.238532 C122.12844,310.018349 120.954128,299.449541 120.954128,285.357798 L120.954128,283.009174 C119.779817,284.183486 118.605505,285.357798 117.431193,285.357798 C116.256881,285.357798 115.082569,286.53211 112.733945,286.53211 L108.036697,286.53211 C106.862385,286.53211 105.688073,285.357798 103.33945,285.357798 C103.33945,287.706422 104.513761,288.880734 104.513761,291.229358 L104.513761,295.926606 C104.513761,301.798165 102.165138,307.669725 97.4678899,312.366972 C92.7706422,317.06422 86.8990826,319.412844 79.853211,319.412844 C69.2844037,319.412844 58.7155963,314.715596 46.9724771,304.146789 C36.4036697,293.577982 30.5321101,284.183486 30.5321101,273.614679 C30.5321101,271.266055 30.5321101,270.091743 31.706422,268.917431 C31.706422,263.045872 32.8807339,261.87156 34.0550459,260.697248 L34.0550459,260.697248 Z M110.385321,266.568807 C112.733945,266.568807 116.256881,265.394495 118.605505,263.045872 C120.954128,260.697248 122.12844,257.174312 122.12844,254.825688 C122.12844,251.302752 119.779817,244.256881 115.082569,232.513761 C110.385321,220.770642 104.513761,209.027523 97.4678899,198.458716 C92.7706422,190.238532 86.8990826,183.192661 82.2018349,179.669725 C77.5045872,174.972477 72.8073394,173.798165 68.1100917,173.798165 C64.587156,173.798165 61.0642202,176.146789 56.3669725,180.844037 C51.6697248,185.541284 50.4954128,189.06422 50.4954128,193.761468 C50.4954128,197.284404 52.8440367,204.330275 56.3669725,212.550459 C61.0642202,220.770642 65.7614679,228.990826 72.8073394,238.385321 C79.853211,247.779817 86.8990826,256 93.9449541,261.87156 C100.990826,264.220183 105.688073,266.568807 110.385321,266.568807 L110.385321,266.568807 Z M135.045872,144.440367 L106.862385,65.7614679 C99.8165138,45.7981651 95.1192661,31.706422 90.4220183,25.8348624 C86.8990826,19.9633028 83.3761468,16.440367 78.6788991,16.440367 C75.1559633,16.440367 72.8073394,17.6146789 70.4587156,19.9633028 C66.9357798,23.4862385 65.7614679,27.0091743 65.7614679,31.706422 C65.7614679,39.9266055 69.2844037,52.8440367 75.1559633,71.6330275 C81.0275229,90.4220183 90.4220183,116.256881 102.165138,146.788991 C103.33945,144.440367 104.513761,143.266055 106.862385,143.266055 C109.211009,142.091743 111.559633,142.091743 113.908257,142.091743 L119.779817,142.091743 C123.302752,143.266055 128,143.266055 135.045872,144.440367 L135.045872,144.440367 Z M163.229358,220.770642 C156.183486,220.770642 149.137615,219.59633 142.091743,218.422018 C135.045872,217.247706 129.174312,216.073394 123.302752,213.724771 C125.651376,219.59633 128,224.293578 130.348624,230.165138 C132.697248,236.036697 133.87156,240.733945 135.045872,246.605505 C138.568807,241.908257 143.266055,237.211009 147.963303,232.513761 C153.834862,227.816514 158.53211,224.293578 163.229358,220.770642 L163.229358,220.770642 Z M197.284404,152.66055 C209.027523,122.12844 217.247706,96.293578 224.293578,76.3302752 C230.165138,56.3669725 233.688073,44.6238532 233.688073,39.9266055 C233.688073,35.2293578 232.513761,31.706422 230.165138,28.1834862 C227.816514,25.8348624 225.46789,24.6605505 221.944954,24.6605505 C217.247706,24.6605505 212.550459,28.1834862 207.853211,36.4036697 C203.155963,44.6238532 197.284404,56.3669725 191.412844,73.9816514 L165.577982,146.788991 L197.284404,152.66055 L197.284404,152.66055 Z" fill="#000000"></path>
    </g>
</svg>

<svg width="256" height="369" xmlns="http://www.w3.org/2000/svg" preserveAspectRatio="xMidYMid"><path d="M214.9 157.358c15.265 2.348 25.834 9.394 31.706 18.789 5.871 9.394 9.394 25.835 9.394 46.972 0 42.275-12.917 77.505-38.752 104.514-25.835 27.01-58.716 41.1-98.642 41.1-15.267 0-30.533-2.348-45.799-8.22-15.266-5.87-27.009-14.091-37.578-23.485-11.743-10.57-21.137-23.487-27.009-35.23C3.523 288.881 0 275.963 0 263.046c0-14.092 3.523-25.835 9.394-34.055 5.872-8.22 16.44-12.918 29.358-16.44-2.348-5.872-4.697-10.57-5.871-15.267-1.175-3.523-2.349-7.045-2.349-9.394 0-7.046 3.523-15.266 11.743-23.486s15.266-11.743 22.312-11.743c3.523 0 5.872 0 9.395 1.174 3.523 1.174 7.046 2.348 11.743 5.871-10.569-35.229-21.138-64.587-27.01-84.55-5.871-19.963-8.22-32.88-8.22-41.101 0-10.569 2.349-18.789 8.22-24.66C63.414 3.522 71.634 0 81.029 0c15.266 0 35.229 35.23 59.89 106.862 4.697 11.744 7.045 21.138 9.394 28.184 2.349-4.697 4.697-12.918 8.22-22.312C183.192 42.275 204.33 7.046 220.771 7.046c8.22 0 15.266 2.348 21.137 8.22 4.698 5.872 8.22 14.092 8.22 23.486 0 7.046-2.348 21.138-8.22 41.101-7.046 19.964-15.266 45.798-27.009 77.505zM34.054 260.698c2.349 2.348 5.872 7.045 9.395 12.917C54.018 288.88 64.587 297.1 73.982 297.1c3.523 0 5.871-1.174 8.22-3.523 2.348-2.349 3.523-4.697 3.523-5.872 0-2.348-1.175-7.045-4.697-12.917-3.523-5.872-8.22-12.917-14.092-19.963-7.046-8.22-12.918-15.266-16.44-18.79-4.698-3.522-8.22-5.87-10.57-5.87-5.871 0-11.743 3.522-16.44 9.394-4.697 5.871-7.046 14.091-7.046 22.312 0 7.045 1.175 14.091 4.698 23.486 3.523 8.22 8.22 17.614 15.266 25.835 10.568 11.743 22.312 22.312 37.578 29.357 15.266 7.046 30.532 10.57 49.32 10.57 32.881 0 59.89-11.744 82.203-36.404 22.312-24.661 32.88-55.193 32.88-92.771 0-11.743-1.174-19.963-2.348-27.01-1.175-7.045-4.698-11.742-8.22-14.091-7.046-5.872-19.964-10.569-39.927-15.266-19.963-4.697-41.101-7.046-62.239-7.046-5.871 0-10.568 1.174-12.917 3.523s-3.523 5.872-3.523 10.569c0 11.743 5.872 19.963 18.789 24.66 12.917 4.698 34.055 8.22 62.239 8.22h10.568c2.349 0 4.698 1.175 5.872 2.35 1.174 2.348 2.349 4.696 2.349 8.22-2.35 2.348-8.22 5.871-17.615 9.394-9.395 3.523-15.266 7.046-19.963 10.569-10.57 7.046-18.79 16.44-24.661 27.009-5.872 10.569-9.395 19.963-9.395 29.358 0 5.871 1.175 11.743 3.523 19.963 2.35 8.22 3.523 12.917 3.523 14.092v4.697c-7.046 0-12.917-4.697-17.614-12.917-4.698-8.22-5.872-18.79-5.872-32.881v-2.349c-1.174 1.174-2.348 2.349-3.523 2.349-1.174 0-2.348 1.174-4.697 1.174h-4.697c-1.175 0-2.349-1.174-4.698-1.174 0 2.348 1.175 3.523 1.175 5.871v4.698c0 5.871-2.349 11.743-7.046 16.44-4.697 4.697-10.569 7.046-17.615 7.046-10.569 0-21.137-4.697-32.88-15.266-10.57-10.569-16.44-19.964-16.44-30.532 0-2.349 0-3.523 1.173-4.698 0-5.871 1.175-7.045 2.349-8.22zm76.33 5.87c2.349 0 5.872-1.174 8.22-3.522 2.35-2.349 3.523-5.872 3.523-8.22 0-3.523-2.348-10.57-7.045-22.312-4.698-11.743-10.57-23.486-17.615-34.055-4.697-8.22-10.569-15.266-15.266-18.79-4.697-4.697-9.395-5.87-14.092-5.87-3.523 0-7.046 2.348-11.743 7.045s-5.872 8.22-5.872 12.917c0 3.523 2.349 10.57 5.872 18.79 4.697 8.22 9.394 16.44 16.44 25.834C79.853 247.78 86.9 256 93.945 261.872c7.046 2.348 11.743 4.697 16.44 4.697zm24.66-122.128l-28.183-78.679c-7.045-19.963-11.743-34.055-16.44-39.926-3.523-5.872-7.046-9.395-11.743-9.395-3.523 0-5.872 1.175-8.22 3.523-3.523 3.523-4.698 7.046-4.698 11.743 0 8.22 3.523 21.138 9.395 39.927 5.872 18.789 15.266 44.624 27.01 75.156 1.173-2.349 2.348-3.523 4.696-3.523 2.349-1.174 4.698-1.174 7.046-1.174h5.872c3.523 1.174 8.22 1.174 15.266 2.348zm28.184 76.33c-7.046 0-14.091-1.174-21.137-2.348-7.046-1.174-12.918-2.349-18.79-4.697 2.35 5.871 4.698 10.569 7.047 16.44 2.348 5.872 3.523 10.569 4.697 16.44 3.523-4.697 8.22-9.394 12.917-14.091 5.872-4.697 10.57-8.22 15.266-11.743zm34.055-68.11c11.744-30.532 19.964-56.366 27.01-76.33 5.871-19.963 9.394-31.706 9.394-36.403 0-4.698-1.174-8.22-3.523-11.744-2.348-2.348-4.697-3.522-8.22-3.522-4.697 0-9.395 3.522-14.092 11.743-4.697 8.22-10.569 19.963-16.44 37.578l-25.835 72.807 31.706 5.872z"/></svg>
